icons/chaplaincy_fill.svg

<svg width="48" height="48" viewBox="0 0 48 48" fill="none" xmlns="http://www.w3.org/2000/svg">
<path fill-rule="evenodd" clip-rule="evenodd" d="M6 9C6 7.34315 7.34315 6 9 6H39C40.6569 6 42 7.34315 42 9V39C42 40.6569 40.6569 42 39 42H9C7.34315 42 6 40.6569 6 39V9ZM18.0577 36.5L19.6211 37.5071C20.2866 37.9358 21.1626 37.458 21.1626 36.6664L21.1627 32.7586C21.1627 32.4514 21.0215 32.1613 20.7798 31.9717L14.0934 26.7277C13.6515 26.3811 13.0109 26.4663 12.6749 26.9163L10.5988 29.6977C10.2682 30.1407 10.3596 30.7678 10.803 31.0979L18.0577 36.5ZM28.5431 37.5071L30.1065 36.5L37.3612 31.0979C37.8045 30.7678 37.896 30.1407 37.5653 29.6977L35.4892 26.9163C35.1533 26.4663 34.5127 26.3811 34.0707 26.7277L27.3844 31.9717C27.1427 32.1613 27.0015 32.4514 27.0015 32.7586L27.0015 36.6664C27.0015 37.458 27.8776 37.9358 28.5431 37.5071ZM32.4291 23.2747C32.3405 23.916 32.2526 24.5523 32.2722 25.2711L32.5015 25.9999L27.4473 29.9999L26.7181 29.142C26.2443 28.4093 26 27.9999 25.5 26.9999C25 25.9999 25 24.9999 25 24.9999L25.0001 23.2744C25.0001 22.3133 25.0001 21.3929 25 19.066C24.9999 18 26.1518 18.3417 26.746 18.8478C27.3402 19.354 27.4032 19.795 27.4032 19.795L27.9889 22.8892C27.9889 22.8892 27.9838 20.0947 27.8452 19.066C27.7926 18.6758 27.4802 18.1328 27.1186 17.5041C26.9973 17.2932 26.8705 17.0727 26.746 16.8451C26.58 16.5413 26.4328 16.2827 26.2984 16.0465C25.99 15.5044 25.7488 15.0803 25.5001 14.5C24.1403 11.3271 25.9229 11.6797 26.7203 12.1438C27.5178 12.6078 31.4 16.6412 31.908 17.4107C32.3057 18.0134 32.3788 18.8229 32.4612 19.7362C32.484 19.9891 32.5075 20.25 32.5389 20.5167C32.6636 21.5777 32.5458 22.4305 32.4291 23.2747ZM15.892 25.2711C15.9116 24.5523 15.8237 23.916 15.7351 23.2747C15.6184 22.4305 15.5006 21.5777 15.6253 20.5167C15.6567 20.25 15.6802 19.9891 15.703 19.7362C15.7854 18.8229 15.8584 18.0134 16.2562 17.4107C16.7642 16.6412 20.6464 12.6078 21.4439 12.1438C22.2413 11.6797 24.0239 11.3271 22.6641 14.5C22.4154 15.0803 22.1741 15.5044 21.8658 16.0465C21.7314 16.2827 21.5842 16.5413 21.4182 16.8451C21.2937 17.0727 21.1669 17.2932 21.0456 17.5041C20.684 18.1328 20.3716 18.6758 20.319 19.066C20.1804 20.0947 20.1753 22.8892 20.1753 22.8892L20.761 19.795C20.761 19.795 20.824 19.354 21.4182 18.8478C22.0123 18.3417 23.1642 18 23.1642 19.066C23.164 21.3944 23.1641 22.3144 23.1641 23.2762C23.1642 23.773 23.1642 24.2809 23.1642 24.9999C23.1642 24.9999 23.1642 25.9999 22.6642 26.9999C22.1642 27.9999 21.9198 28.4093 21.446 29.142L20.7168 29.9999L15.6627 25.9999L15.892 25.2711Z" fill="black"/>
</svg>

<svg
  xmlns="http://www.w3.org/2000/svg"
  width="24"
  height="24"
  viewBox="0 0 24 24"
  fill="none"
  stroke="currentColor"
  stroke-width="2"
  stroke-linecap="round"
  stroke-linejoin="round"
>
  <path
    fill-rule="evenodd"
    d="M6 9a3 3 0 0 1 3-3h30a3 3 0 0 1 3 3v30a3 3 0 0 1-3 3H9a3 3 0 0 1-3-3zm12.058 27.5 1.563 1.007a1 1 0 0 0 1.542-.84v-3.908a1 1 0 0 0-.383-.787l-6.687-5.244a1 1 0 0 0-1.418.188l-2.076 2.782a1 1 0 0 0 .204 1.4zm10.485 1.007 1.564-1.007 7.254-5.402a1 1 0 0 0 .204-1.4l-2.076-2.782a1 1 0 0 0-1.418-.188l-6.687 5.244a1 1 0 0 0-.383.787v3.907a1 1 0 0 0 1.542.841m3.886-14.232c-.089.641-.176 1.277-.157 1.996l.23.729-5.055 4-.729-.858A18 18 0 0 1 25.5 27c-.5-1-.5-2-.5-2v-5.934c0-1.066 1.152-.724 1.746-.218s.657.947.657.947l.586 3.094s-.005-2.794-.144-3.823c-.052-.39-.365-.933-.726-1.562a35 35 0 0 1-.373-.659c-.166-.304-.313-.562-.448-.798-.308-.543-.55-.967-.798-1.547-1.36-3.173.423-2.82 1.22-2.356.798.464 4.68 4.497 5.188 5.267.398.602.47 1.412.553 2.325q.033.38.078.78c.125 1.062.007 1.915-.11 2.759M15.892 25.27c.02-.719-.068-1.355-.157-1.996-.117-.844-.234-1.697-.11-2.758.032-.267.055-.528.078-.78.082-.914.155-1.724.553-2.326.508-.77 4.39-4.803 5.188-5.267.797-.464 2.58-.817 1.22 2.356-.249.58-.49 1.004-.798 1.547-.135.236-.282.494-.448.798a35 35 0 0 1-.372.66c-.362.628-.674 1.17-.727 1.561-.139 1.029-.144 3.823-.144 3.823l.586-3.094s.063-.441.657-.947 1.746-.848 1.746.218V25s0 1-.5 2-.744 1.41-1.218 2.142l-.73.858-5.053-4z"
    clip-rule="evenodd"
  />
</svg>
